robot-vacuum-off.svg

<svg fill="currentColor" viewBox="0 0 24 24"><path d="M20.8 22.7 18 19.9c-1.7 1.3-3.8 2.1-6 2.1-5.5 0-10-4.5-10-10 0-2 .6-3.9 1.7-5.5l1.5 1.4C4.4 9.2 4 10.6 4 12c0 4.4 3.6 8 8 8 1.7 0 3.3-.6 4.6-1.5l-2.9-2.9c-.5.3-1.1.4-1.7.4-1.1 0-2.1-.4-2.8-1.2l-1.4 1.4C6.6 15.1 6 13.6 6 12c0-1.2.3-2.3.9-3.2L1.1 3l1.3-1.3 19.7 19.7zM20 12c0 1.4-.4 2.7-1 3.8l1.5 1.5c1-1.5 1.5-3.3 1.5-5.3s-.6-3.9-1.7-5.5l-1.5 1.4c.8 1.3 1.2 2.7 1.2 4.1m-8-8c2.1 0 4.2.8 5.7 2.3l1.4-1.4C17.2 3.1 14.7 2 12 2c-1.9 0-3.7.5-5.3 1.5L8.2 5c1.1-.7 2.5-1 3.8-1m5.5 10.3c.3-.7.5-1.5.5-2.3 0-3.3-2.7-6-6-6-.8 0-1.6.2-2.3.5l1.7 1.7c.2-.1.4-.2.6-.2.6 0 1 .4 1 1 0 .2-.1.4-.2.6z"/></svg>

<svg  viewBox="0 0 24 24" fill="currentColor"><path  d="M20.8 22.7L18 19.9C16.3 21.2 14.2 22 12 22C6.5 22 2 17.5 2 12C2 10 2.6 8.1 3.7 6.5L5.2 7.9C4.4 9.2 4 10.6 4 12C4 16.4 7.6 20 12 20C13.7 20 15.3 19.4 16.6 18.5L13.7 15.6C13.2 15.9 12.6 16 12 16C10.9 16 9.9 15.6 9.2 14.8L7.8 16.2C6.6 15.1 6 13.6 6 12C6 10.8 6.3 9.7 6.9 8.8L1.1 3L2.4 1.7L22.1 21.4L20.8 22.7M20 12C20 13.4 19.6 14.7 19 15.8L20.5 17.3C21.5 15.8 22 14 22 12C22 10 21.4 8.1 20.3 6.5L18.8 7.9C19.6 9.2 20 10.6 20 12M12 4C14.1 4 16.2 4.8 17.7 6.3L19.1 4.9C17.2 3.1 14.7 2 12 2C10.1 2 8.3 2.5 6.7 3.5L8.2 5C9.3 4.3 10.7 4 12 4M17.5 14.3C17.8 13.6 18 12.8 18 12C18 8.7 15.3 6 12 6C11.2 6 10.4 6.2 9.7 6.5L11.4 8.2C11.6 8.1 11.8 8 12 8C12.6 8 13 8.4 13 9C13 9.2 12.9 9.4 12.8 9.6L17.5 14.3Z"/></svg>
